src/assets/icons/favorite-selected.svg

<svg width="16" height="16" viewBox="0 0 16 16" fill="none" xmlns="http://www.w3.org/2000/svg">
<g clip-path="url(#clip0_8874_15311)">
<path fill-rule="evenodd" clip-rule="evenodd" d="M7.69071 0.316656C7.39668 0.378696 7.08216 0.56821 6.88633 0.801366C6.79345 0.91195 6.70634 1.07725 6.12023 2.25507C5.75653 2.98598 5.35633 3.79399 5.23089 4.05064C5.04431 4.43245 4.99563 4.51894 4.96308 4.52633C4.9412 4.5313 4.06292 4.66259 3.01134 4.81806C1.95977 4.97352 1.05695 5.11336 1.00508 5.12879C0.802018 5.18922 0.586936 5.32004 0.415289 5.4875C-0.0946278 5.98502 -0.163355 6.80641 0.257137 7.37761C0.298823 7.43423 0.966429 8.0921 1.74073 8.83954C2.51501 9.58701 3.14853 10.2012 3.14853 10.2044C3.14853 10.2076 3.00172 11.069 2.82233 12.1186C2.64291 13.1681 2.49141 14.0925 2.48567 14.1727C2.45026 14.6674 2.71673 15.1891 3.14698 15.4675C3.5559 15.732 4.08442 15.7809 4.51335 15.594C4.55963 15.5738 5.36329 15.1527 6.29924 14.6582L8.00099 13.7591L9.70303 14.6581C10.6392 15.1526 11.4429 15.5737 11.4892 15.5939C11.7718 15.7172 12.1315 15.7389 12.4511 15.6518C13.0979 15.4757 13.5638 14.8292 13.5169 14.1727C13.5112 14.0925 13.3592 13.1751 13.1792 12.134L12.852 10.2412L14.2496 8.854C15.1395 7.97075 15.6766 7.42496 15.728 7.35162C15.9115 7.08999 15.9812 6.8632 15.9821 6.52481C15.9825 6.38463 15.9735 6.25611 15.9594 6.19901C15.8251 5.65788 15.4198 5.24298 14.8946 5.10897C14.8427 5.09575 13.9631 4.96148 12.9398 4.81062C11.9165 4.65977 11.0612 4.53041 11.0391 4.52316C11.0063 4.51241 10.8407 4.19036 10.1428 2.77985C9.67192 1.82828 9.25263 0.998528 9.21101 0.935957C9.10123 0.770826 9.01059 0.673822 8.87156 0.572703C8.52658 0.321783 8.10242 0.229803 7.69071 0.316656Z" fill="currentColor"/>
</g>
<defs>
<clipPath id="clip0_8874_15311">
<rect width="16" height="16" fill="white" transform="translate(0 -0.000732422)"/>
</clipPath>
</defs>
</svg>

<svg xmlns="http://www.w3.org/2000/svg" width="16" height="16" fill="none">
  <g clip-path="url(#a)">
    <path fill="currentColor" fill-rule="evenodd" d="M7.69.317A1.527 1.527 0 0 0 6.887.8c-.093.11-.18.276-.766 1.454-.363.731-.764 1.539-.89 1.796-.186.381-.234.468-.267.475-.022.005-.9.137-1.952.292a80.859 80.859 0 0 0-2.006.31 1.5 1.5 0 0 0-.59.36 1.46 1.46 0 0 0-.158 1.89c.042.056.71.714 1.484 1.462.774.747 1.408 1.361 1.408 1.364l-.327 1.915c-.18 1.05-.33 1.973-.336 2.054-.036.494.23 1.016.661 1.294.409.265.937.314 1.366.127.047-.02.85-.441 1.786-.936l1.702-.899 1.702.9c.936.494 1.74.915 1.786.935.283.123.643.145.962.058.647-.176 1.113-.823 1.066-1.48-.006-.08-.158-.997-.338-2.038l-.327-1.893 1.398-1.387c.89-.883 1.427-1.429 1.478-1.502.184-.262.253-.489.254-.827 0-.14-.008-.269-.023-.326a1.478 1.478 0 0 0-1.064-1.09c-.052-.013-.932-.148-1.955-.298-1.024-.151-1.879-.28-1.9-.288-.034-.01-.2-.333-.897-1.743A68.396 68.396 0 0 0 9.212.935c-.11-.165-.2-.262-.34-.363a1.478 1.478 0 0 0-1.18-.256Z" clip-rule="evenodd"/>
  </g>
  <defs>
    <clipPath id="a">
      <path fill="#fff" d="M0 0h16v16H0z"/>
    </clipPath>
  </defs>
</svg>
